X:476
T:Geese on the Bog, The
R:jig
H:See also #460, #240
D:M\'orga
Z:hn-jig-476
M:6/8
L:1/8
K:Edor
B2A GEE | B,EE GEE | B2A GED | EAA A3 |
B2A GEE | B,EE GEE | B2A GED | EAA AB=c |
B2A G2E | B2E G2E | B2A GED | EAA AB=c |
B2A GEE | B,EE GEE | B2A GED | EAA AB=c ||
|: Bcd efg | eaf ged | ~B3 efg | eaa a3 |
Bcd efg | eaa ged |1 c2A BAG | EAA A3 :|2 cBA BAG | EAA AB=c ||
P:variations
B2A GED | ~E3 GED | B2A GED | EAA A3 |
B2A GEE | B,EE GEE | B2A GED | EAA AB=c |
B2A G2E | B2E e2E | B2A GED | EAA A3 |
B2A GEE | BEE GEE | B2A GED | EAA AB=c ||
|: Bcd efg | eaf ged | ~B3 efg | eaa a3 |
Bcd efg | eaa ged |1 cAA BAG | EAA A3 :|2 cBA BAG | EAA AB=c ||

